X:1
T:Cantate Domino
T:Cantate Domino
T:Giovanni Girolamo Kapsperger
T:Source : Libro primo di mottetti passeggiati a una voce---Roma---1612. Racolta del Sig.Francesco de Nobile Editor : André Vierendeels (21/10/15).
T:Notes : Original clefs : C1, F4 Editorial accidentals above the staff Note values have been halved in 3-beat measures Dotted bracket indicates black notes
C:Giovanni Girolamo Kapsperger
%%score 1 2
L:1/8
Q:1/4=80
M:3/4
K:C
V:1 treble nm="Soprano" snm="S"
V:2 bass nm="BC" snm="BC"
V:1
 z4 d2 | e4 d2 | ^c3 c d2 | A3 A A2 |[M:4/4] B8 | A6 A/B/c/d/ | %6
w: Can-|ta- te|Do- mi- no|can- ti- cum|no-|vum, can- * * *|
 e/c/d/e/ c/d/e/B/ c/d/G/A/ B/G/A/B/ | E3 ^F/G/ A/B/c/d/ e2- | e2 AA A4 | G6 d2 | %10
w: ||* ti- cum no-|vum, can-|
 c/B/B/B/ B/B/A B4- | B E/F/ G/A/B/c/ d/e/c/d/ e/c/d/e/ | f/e/d/cd/c B4 | %13
w: ta- * * * * * * te,|_ can- * * * * * * * * * * * * *|* * * * * * ta-|
 A>e e2 f/e/d/c/ B/A/B/c/ | B/A/G/^F/ E/D/A/B/ c/d/G G/A/B/E/ | %15
w: te, can- ta- * * * * * * * *|* * * * * * * * * * te Do- * * *|
 ^F/G/A/D/ E/F/G/F/ G/F/G/F/4F/4 FE | ^F6 D/E/F/4G/4A/4B/4 | c4 A4 | _B>c B>c d2 G>A | %19
w: * * * * * * * * * * * * * * mi-|no o- * * * * *|* mnis|ter- * * * * * *|
 F/G/A/F/ G/A/_B/G/ A/F/G/A/ D/E/F/D/ | G/F/G/4F/4G/4F/4 ED E4 |[M:3/4] D4 d2 | G4 A2 | B3 B B2 | %24
w: ||ra, can-|ta- te|Do- mi- no|
 B2 c2 d2 | e3 e e2 |[M:4/4] z2 B/c/d/D/ E/^F/G/A/ B/c/d/e/ | f6 ee | e3 d/c/ d4 |[M:3/4] c4 e2 | %30
w: et be- ne-|di- ci- te|no- * * * * * * * * * * *|* mi- ni|e- * * *|ius, an-|
 d4 c2 | B2 B2 A2 | G2 G2 F2 |[M:4/4] E4 E4 | c3 B d3 E | ^FG A4 ^G2 |[M:3/4] A4 d2 | G4 A2 | %38
w: nun- ci-|a- te de|di- e in|di- em|sa- lu- ta- re|e- * * *|ius, an-|nun- ci-|
 B2 B2 ^c2 | d2 d2 d2 |[M:4/4] d6 ^c2 | d2 e/c/d/f/ e2 B2 | c/B/c/d/ c2 G2 A/G/A/B/ | %43
w: a- te de|di- e in|di- em|_ sa- * * * * lu-|ta- * * * * re e- * * *|
 A3 G/F/ E^F/G/ E/F/G/A/ | DE/^F/ G/A/B/c/ d/G/A/B/ c/A/B/G/ |"^#" A/G/F/E/ D>^F E>G F>A | %46
w: |||
 G/A/B/c/ d/e/f/g/ GA/B/4c/4 B>c | B>c B/B/B/A/4G/4 A4 | !fermata!G8 |] %49
w: ||ius.|
V:2
 z4 G,2 | C,4 G,2 | A,3 A, F,2 | D,3 D, ^C,2 |[M:4/4] E,8 | A,,8 | A,2 G,4 E,2 | C,6 ^C,2 | D,8 | %9
 G,,4 G,4 | A,4 G,4 | C,8 | D,4 E,4 | A,,4 C,4 | D,4 E,4 | D,4 E,4 | D,8 | A,,4 F,,4 | G,,8 | D,8 | %20
 _B,,4 A,,4 |[M:3/4] D,4 G,,2 | C,4 A,,2 | G,,3 G,, G,,2 | G,2 F,E, D,2 | C,3 C, C,2 |[M:4/4] G,8 | %27
 D,4 E,4 | G,8 |[M:3/4] C,4 C,2 | G,4 A,2 | E,2 E,2 F,2 | C,2 C,2 D,2 |[M:4/4] A,,4 A,,4 | %34
 A,2 E,2 B,,2 C,2 | D,2 F,2 E,4 |[M:3/4] A,,2 D,4 | E,4 ^F,2 | G,2 G,2 A,2 | B,2 B,2 ^G,2 | %40
[M:4/4] A,8 | D,2 C,4 G,2 | A,4 E,2 F,2 | F,4 C,4 | B,,4 B,,4- | B,,4 C,2 D,2 | E,8 | D,8 | %48
 !fermata!G,,8 |] %49

